public/assets/8red.svg

<svg width="163" height="168" viewBox="0 0 163 168" fill="none" xmlns="http://www.w3.org/2000/svg">
<g filter="url(#filter0_d)">
<path d="M29.5815 127.06L42.582 28.0601L129.224 19.9716L129.224 138.06L29.5815 127.06Z" fill="#FFF1F0"/>
<path d="M89.6457 45.7625C95.6457 45.7625 100.346 47.1625 103.746 49.9625C107.146 52.6958 108.846 56.3958 108.846 61.0625C108.846 66.1292 106.179 70.3958 100.846 73.8625V74.6625C103.779 76.1958 106.079 78.0292 107.746 80.1625C109.412 82.2958 110.246 84.9625 110.246 88.1625C110.246 93.9625 108.079 98.5292 103.746 101.862C99.479 105.129 93.7457 106.763 86.5457 106.763C79.8124 106.763 74.6457 105.362 71.0457 102.562C67.4457 99.6958 65.6457 95.9958 65.6457 91.4625C65.6457 88.3292 66.479 85.7292 68.1457 83.6625C69.879 81.5958 72.479 79.8292 75.9457 78.3625V77.5625C70.079 74.3625 67.1457 69.7292 67.1457 63.6625C67.1457 58.1292 69.179 53.7625 73.2457 50.5625C77.3124 47.3625 82.779 45.7625 89.6457 45.7625ZM88.2457 58.9625C86.4457 58.9625 85.1124 59.3292 84.2457 60.0625C83.379 60.7292 82.9457 61.6958 82.9457 62.9625C82.9457 64.4292 83.5457 65.6625 84.7457 66.6625C86.0124 67.6625 87.8124 68.6292 90.1457 69.5625C92.479 67.5625 93.6457 65.4958 93.6457 63.3625C93.6457 62.0292 93.1457 60.9625 92.1457 60.1625C91.2124 59.3625 89.9124 58.9625 88.2457 58.9625ZM86.6457 83.0625C84.8457 83.7292 83.5457 84.4958 82.7457 85.3625C82.0124 86.1625 81.6457 87.2625 81.6457 88.6625C81.6457 90.3292 82.179 91.6292 83.2457 92.5625C84.379 93.4958 86.0124 93.9625 88.1457 93.9625C90.2124 93.9625 91.779 93.5625 92.8457 92.7625C93.9124 91.8958 94.4457 90.8625 94.4457 89.6625C94.4457 88.1958 93.779 86.9958 92.4457 86.0625C91.179 85.0625 89.2457 84.0625 86.6457 83.0625Z" fill="#EB6D73"/>
</g>
<defs>
<filter id="filter0_d" x="0.539062" y="0.601562" width="162.031" height="166.71" filterUnits="userSpaceOnUse" color-interpolation-filters="sRGB">
<feFlood flood-opacity="0" result="BackgroundImageFix"/>
<feColorMatrix in="SourceAlpha" type="matrix" values="0 0 0 0 0 0 0 0 0 0 0 0 0 0 0 0 0 0 127 0"/>
<feOffset/>
<feGaussianBlur stdDeviation="5"/>
<feColorMatrix type="matrix" values="0 0 0 0 0 0 0 0 0 0 0 0 0 0 0 0 0 0 0.25 0"/>
<feBlend mode="normal" in2="BackgroundImageFix" result="effect1_dropShadow"/>
<feBlend mode="normal" in="SourceGraphic" in2="effect1_dropShadow" result="shape"/>
</filter>
</defs>
</svg>

<svg width="163" height="168" fill="none" xmlns="http://www.w3.org/2000/svg"><g filter="url(#filter0_d)"><path d="M29.581 127.06l13.001-99 86.642-8.088V138.06l-99.642-11z" fill="#FFF1F0"/><path d="M89.646 45.763c6 0 10.7 1.4 14.1 4.2 3.4 2.733 5.1 6.433 5.1 11.1 0 5.066-2.667 9.333-8 12.8v.8c2.933 1.533 5.233 3.366 6.9 5.5 1.666 2.133 2.5 4.8 2.5 8 0 5.8-2.167 10.366-6.5 13.699-4.267 3.267-10 4.901-17.2 4.901-6.734 0-11.9-1.401-15.5-4.201-3.6-2.866-5.4-6.566-5.4-11.1 0-3.133.833-5.733 2.5-7.8 1.733-2.066 4.333-3.833 7.8-5.3v-.8c-5.867-3.2-8.8-7.833-8.8-13.9 0-5.533 2.033-9.9 6.1-13.1 4.066-3.2 9.533-4.8 16.4-4.8zm-1.4 13.2c-1.8 0-3.134.366-4 1.1-.867.666-1.3 1.633-1.3 2.9 0 1.466.6 2.7 1.8 3.7 1.266 1 3.066 1.966 5.4 2.9 2.333-2 3.5-4.067 3.5-6.2 0-1.334-.5-2.4-1.5-3.2-.934-.8-2.234-1.2-3.9-1.2zm-1.6 24.1c-1.8.666-3.1 1.433-3.9 2.3-.734.8-1.1 1.9-1.1 3.3 0 1.666.533 2.966 1.6 3.9 1.133.933 2.766 1.4 4.9 1.4 2.066 0 3.633-.4 4.7-1.2 1.066-.867 1.6-1.9 1.6-3.1 0-1.467-.667-2.667-2-3.6-1.267-1-3.2-2-5.8-3z" fill="#EB6D73"/></g><defs><filter id="filter0_d" x=".539" y=".602" width="162.031" height="166.71" filterUnits="userSpaceOnUse" color-interpolation-filters="sRGB"><feFlood flood-opacity="0" result="BackgroundImageFix"/><feColorMatrix in="SourceAlpha" values="0 0 0 0 0 0 0 0 0 0 0 0 0 0 0 0 0 0 127 0"/><feOffset/><feGaussianBlur stdDeviation="5"/><feColorMatrix values="0 0 0 0 0 0 0 0 0 0 0 0 0 0 0 0 0 0 0.25 0"/><feBlend in2="BackgroundImageFix" result="effect1_dropShadow"/><feBlend in="SourceGraphic" in2="effect1_dropShadow" result="shape"/></filter></defs></svg>
